;FLAVOR:UltiGCode
;TIME:6666
;MATERIAL:6666
;MATERIAL2:0
;NOZZLE_DIAMETER:0.4
;MINX:2.14748e+06
;MINY:2.14748e+06
;MINZ:2.14748e+06
;MAXX:-2.14748e+06
;MAXY:-2.14748e+06
;MAXZ:-2.14748e+06

;Generated with Cura_SteamEngine master
M82 ;absolute extrusion mode
G28 ;Home
G1 Z15.0 F6000 ;Move the platform down 15mm
;Prime the extruder
G92 E0
G1 F200 E3
G92 E0
G92 E0
G92 E0
G1 F1500 E-41.46608
;LAYER_COUNT:329
;LAYER:0
M107
G0 F3600 X106.123 Y105.849 Z0.3
;TYPE:SKIRT
G1 F1500 E0
G1 F1800 X106.722 Y105.334 E0.09479
G1 X107.37 Y104.883 E0.18953
G1 X108.061 Y104.499 E0.2844
G1 X108.786 Y104.187 E0.37911
G1 X109.539 Y103.95 E0.47384
G1 X110.313 Y103.791 E0.56866
G1 X111.098 Y103.71 E0.66336
G1 X111.5 Y103.7 E0.71162
G1 X131.5 Y103.7 E3.11162
G1 X132.289 Y103.74 E3.20642
G1 X133.069 Y103.859 E3.3011
G1 X133.834 Y104.057 E3.39593
G1 X134.574 Y104.331 E3.49062
G1 X135.283 Y104.679 E3.58539
G1 X135.954 Y105.097 E3.68026
G1 X136.578 Y105.58 E3.77495
G1 X137.151 Y106.123 E3.86968
G1 X137.666 Y106.722 E3.96447
G1 X138.117 Y107.37 E4.05921
G1 X138.501 Y108.061 E4.15408
G1 X138.813 Y108.786 E4.24879
G1 X139.05 Y109.539 E4.34352
G1 X139.209 Y110.313 E4.43834
G1 X139.29 Y111.098 E4.53304
G1 X139.3 Y111.5 E4.5813
G1 X139.3 Y131.5 E6.9813
G1 X139.26 Y132.289 E7.0761
G1 X139.141 Y133.069 E7.17078
G1 X138.943 Y133.834 E7.26561
G1 X138.669 Y134.574 E7.3603
G1 X138.321 Y135.283 E7.45507
G1 X137.903 Y135.954 E7.54994
G1 X137.42 Y136.578 E7.64463
G1 X136.877 Y137.151 E7.73936
G1 X136.278 Y137.666 E7.83415
G1 X135.63 Y138.117 E7.92889
G1 X134.939 Y138.501 E8.02376
G1 X134.214 Y138.813 E8.11847
G1 X133.461 Y139.05 E8.2132
G1 X132.687 Y139.209 E8.30802
G1 X131.902 Y139.29 E8.40272
G1 X131.5 Y139.3 E8.45098
G1 X111.5 Y139.3 E10.85098
G1 X110.711 Y139.26 E10.94578
G1 X109.931 Y139.141 E11.04046
G1 X109.166 Y138.943 E11.13529
G1 X108.426 Y138.669 E11.22998
G1 X107.717 Y138.321 E11.32475
G1 X107.046 Y137.903 E11.41962
G1 X106.422 Y137.42 E11.51431
G1 X105.849 Y136.877 E11.60904
G1 X105.334 Y136.278 E11.70383
G1 X104.883 Y135.63 E11.79857
G1 X104.499 Y134.939 E11.89344
G1 X104.187 Y134.214 E11.98815
G1 X103.95 Y133.461 E12.08288
G1 X103.791 Y132.687 E12.1777
G1 X103.71 Y131.902 E12.2724
G1 X103.7 Y131.5 E12.32066
G1 X103.7 Y111.5 E14.72066
G1 X103.74 Y110.711 E14.81546
G1 X103.859 Y109.931 E14.91014
G1 X104.057 Y109.166 E15.00497
G1 X104.331 Y108.426 E15.09966
G1 X104.679 Y107.717 E15.19443
G1 X105.097 Y107.046 E15.2893
G1 X105.58 Y106.422 E15.38399
G1 X106.123 Y105.849 E15.47872
G0 F3600 X106.516 Y106.03
G1 F1800 X107.111 Y105.542 E15.57106
G1 X107.753 Y105.119 E15.66332
G1 X108.436 Y104.764 E15.75569
G1 X109.151 Y104.483 E15.84788
G1 X109.893 Y104.277 E15.94029
G1 X110.651 Y104.149 E16.03254
G1 X111.5 Y104.1 E16.13459
G1 X131.5 Y104.1 E18.53459
G1 X132.268 Y104.14 E18.62687
G1 X133.028 Y104.259 E18.71918
G1 X133.771 Y104.457 E18.81145
G1 X134.49 Y104.731 E18.90379
G1 X135.176 Y105.078 E18.99604
G1 X135.823 Y105.494 E19.08834
G1 X136.423 Y105.975 E19.18062
G1 X136.97 Y106.516 E19.27294
G1 X137.458 Y107.111 E19.36529
G1 X137.881 Y107.753 E19.45755
G1 X138.236 Y108.436 E19.54992
G1 X138.517 Y109.151 E19.6421
G1 X138.723 Y109.893 E19.73451
G1 X138.851 Y110.651 E19.82676
G1 X138.9 Y111.5 E19.92881
G1 X138.9 Y131.5 E22.32881
G1 X138.86 Y132.268 E22.42109
G1 X138.741 Y133.028 E22.51341
G1 X138.543 Y133.771 E22.60568
G1 X138.269 Y134.49 E22.69801
G1 X137.922 Y135.176 E22.79026
G1 X137.506 Y135.823 E22.88257
G1 X137.025 Y136.423 E22.97485
G1 X136.484 Y136.97 E23.06717
G1 X135.889 Y137.458 E23.15951
G1 X135.247 Y137.881 E23.25177
G1 X134.564 Y138.236 E23.34414
G1 X133.849 Y138.517 E23.43633
G1 X133.107 Y138.723 E23.52873
G1 X132.349 Y138.851 E23.62098
G1 X131.5 Y138.9 E23.72303
G1 X111.5 Y138.9 E26.12303
G1 X110.732 Y138.86 E26.21532
G1 X109.972 Y138.741 E26.30763
G1 X109.229 Y138.543 E26.3999
G1 X108.51 Y138.269 E26.49223
G1 X107.824 Y137.922 E26.58448
G1 X107.177 Y137.506 E26.67679
G1 X106.577 Y137.025 E26.76907
G1 X106.03 Y136.484 E26.86139
G1 X105.542 Y135.889 E26.95373
G1 X105.119 Y135.247 E27.04599
G1 X104.764 Y134.564 E27.13836
G1 X104.483 Y133.849 E27.23055
G1 X104.277 Y133.107 E27.32296
G1 X104.149 Y132.349 E27.41521
G1 X104.1 Y131.5 E27.51726
G1 X104.1 Y111.5 E29.91726
G1 X104.14 Y110.732 E30.00954
G1 X104.259 Y109.972 E30.10185
G1 X104.457 Y109.229 E30.19412
G1 X104.731 Y108.51 E30.28646
G1 X105.078 Y107.824 E30.37871
G1 X105.494 Y107.177 E30.47101
G1 X105.975 Y106.577 E30.56329
G1 X106.516 Y106.03 E30.65561
G0 F3600 X106.908 Y106.216
G1 F1800 X107.498 Y105.757 E30.74531
G1 X108.134 Y105.362 E30.83516
G1 X108.808 Y105.038 E30.9249
G1 X109.513 Y104.788 E31.01466
G1 X110.241 Y104.614 E31.10448
G1 X110.983 Y104.519 E31.19425
G1 X111.5 Y104.5 E31.25633
G1 X131.5 Y104.5 E33.65633
G1 X132.247 Y104.54 E33.7461
G1 X132.985 Y104.659 E33.8358
G1 X133.707 Y104.857 E33.92564
G1 X134.403 Y105.13 E34.01535
G1 X135.066 Y105.477 E34.10515
G1 X135.689 Y105.892 E34.19498
G1 X136.263 Y106.371 E34.28469
G1 X136.784 Y106.908 E34.37448
G1 X137.243 Y107.498 E34.46418
G1 X137.638 Y108.134 E34.55402
G1 X137.962 Y108.808 E34.64376
G1 X138.212 Y109.513 E34.73352
G1 X138.386 Y110.241 E34.82334
G1 X138.481 Y110.983 E34.91311
G1 X138.5 Y111.5 E34.97519
G1 X138.5 Y131.5 E37.37519
G1 X138.46 Y132.247 E37.46496
G1 X138.341 Y132.985 E37.55466
G1 X138.143 Y133.707 E37.6445
G1 X137.87 Y134.403 E37.73422
G1 X137.523 Y135.066 E37.82402
G1 X137.108 Y135.689 E37.91384
G1 X136.629 Y136.263 E38.00356
G1 X136.092 Y136.784 E38.09334
G1 X135.502 Y137.243 E38.18304
G1 X134.866 Y137.638 E38.27288
G1 X134.192 Y137.962 E38.36262
G1 X133.487 Y138.212 E38.45239
G1 X132.759 Y138.386 E38.54221
G1 X132.017 Y138.481 E38.63197
G1 X131.5 Y138.5 E38.69406
G1 X111.5 Y138.5 E41.09406
G1 X110.753 Y138.46 E41.18382
G1 X110.015 Y138.341 E41.27353
G1 X109.293 Y138.143 E41.36337
G1 X108.597 Y137.87 E41.45308
G1 X107.934 Y137.523 E41.54288
G1 X107.311 Y137.108 E41.63271
G1 X106.737 Y136.629 E41.72242
G1 X106.216 Y136.092 E41.81221
G1 X105.757 Y135.502 E41.90191
G1 X105.362 Y134.866 E41.99175
G1 X105.038 Y134.192 E42.08149
G1 X104.788 Y133.487 E42.17125
G1 X104.614 Y132.759 E42.26107
G1 X104.519 Y132.017 E42.35084
G1 X104.5 Y131.5 E42.41292
G1 X104.5 Y111.5 E44.81292
G1 X104.54 Y110.753 E44.90269
G1 X104.659 Y110.015 E44.99239
G1 X104.857 Y109.293 E45.08223
G1 X105.13 Y108.597 E45.17195
G1 X105.477 Y107.934 E45.26174
G1 X105.892 Y107.311 E45.35157
G1 X106.371 Y106.737 E45.44129
G1 X106.908 Y106.216 E45.53107
G0 F3600 X106.765 Y106.902
G1 F1800 X107.299 Y106.409 E45.61828
G1 X107.884 Y105.979 E45.70541
G1 X108.513 Y105.615 E45.79262
G1 X109.178 Y105.322 E45.87982
G1 X109.871 Y105.104 E45.967
G1 X110.583 Y104.964 E46.05407
G1 X111.5 Y104.9 E46.16438
G1 X131.5 Y104.9 E48.56438
G1 X132.225 Y104.94 E48.65151
G1 X132.942 Y105.059 E48.73873
G1 X133.641 Y105.257 E48.82591
G1 X134.314 Y105.53 E48.91306
G1 X134.953 Y105.875 E49.0002
G1 X135.55 Y106.289 E49.08738
G1 X136.098 Y106.765 E49.17449
G1 X136.591 Y107.299 E49.2617
G1 X137.021 Y107.884 E49.34882
G1 X137.385 Y108.513 E49.43603
G1 X137.678 Y109.178 E49.52323
G1 X137.896 Y109.871 E49.61041
G1 X138.036 Y110.583 E49.69749
G1 X138.1 Y111.5 E49.80779
G1 X138.1 Y131.5 E52.20779
G1 X138.06 Y132.225 E52.29493
G1 X137.941 Y132.942 E52.38214
G1 X137.743 Y133.641 E52.46932
G1 X137.47 Y134.314 E52.55648
G1 X137.125 Y134.953 E52.64362
G1 X136.711 Y135.55 E52.7308
G1 X136.235 Y136.098 E52.8179
G1 X135.701 Y136.591 E52.90512
G1 X135.116 Y137.021 E52.99224
G1 X134.487 Y137.385 E53.07945
G1 X133.822 Y137.678 E53.16665
G1 X133.129 Y137.896 E53.25383
G1 X132.417 Y138.036 E53.3409
G1 X131.5 Y138.1 E53.45121
G1 X111.5 Y138.1 E55.85121
G1 X110.775 Y138.06 E55.93834
G1 X110.058 Y137.941 E56.02556
G1 X109.359 Y137.743 E56.11274
G1 X108.686 Y137.47 E56.19989
G1 X108.047 Y137.125 E56.28703
G1 X107.45 Y136.711 E56.37421
G1 X106.902 Y136.235 E56.46132
G1 X106.409 Y135.701 E56.54853
G1 X105.979 Y135.116 E56.63566
G1 X105.615 Y134.487 E56.72286
G1 X105.322 Y133.822 E56.81007
G1 X105.104 Y133.129 E56.89724
G1 X104.964 Y132.417 E56.98432
G1 X104.9 Y131.5 E57.09463
G1 X104.9 Y111.5 E59.49463
G1 X104.94 Y110.775 E59.58176
G1 X105.059 Y110.058 E59.66898
G1 X105.257 Y109.359 E59.75616
G1 X105.53 Y108.686 E59.84331
G1 X105.875 Y108.047 E59.93045
G1 X106.289 Y107.45 E60.01763
G1 X106.765 Y106.902 E60.10473
G0 F3600 X107.159 Y107.073
G1 F1800 X107.689 Y106.609 E60.18926
G1 X108.268 Y106.209 E60.27371
G1 X108.889 Y105.877 E60.35821
G1 X109.543 Y105.617 E60.44267
G1 X110.223 Y105.433 E60.5272
G1 X110.919 Y105.327 E60.61169
G1 X111.5 Y105.3 E60.68148
G1 X131.5 Y105.3 E63.08148
G1 X132.203 Y105.34 E63.16598
G1 X132.897 Y105.459 E63.25047
G1 X133.572 Y105.657 E63.33489
G1 X134.221 Y105.929 E63.41933
G1 X134.835 Y106.274 E63.50384
G1 X135.406 Y106.685 E63.58827
G1 X135.927 Y107.159 E63.67279
G1 X136.391 Y107.689 E63.75732
G1 X136.791 Y108.268 E63.84177
G1 X137.123 Y108.889 E63.92627
G1 X137.383 Y109.543 E64.01072
G1 X137.567 Y110.223 E64.09526
G1 X137.673 Y110.919 E64.17974
G1 X137.7 Y111.5 E64.24954
G1 X137.7 Y131.5 E66.64954
G1 X137.66 Y132.203 E66.73403
G1 X137.541 Y132.897 E66.81853
G1 X137.343 Y133.572 E66.90294
G1 X137.071 Y134.221 E66.98738
G1 X136.726 Y134.835 E67.0719
G1 X136.315 Y135.406 E67.15632
G1 X135.841 Y135.927 E67.24085
G1 X135.311 Y136.391 E67.32537
G1 X134.732 Y136.791 E67.40982
G1 X134.111 Y137.123 E67.49432
G1 X133.457 Y137.383 E67.57878
G1 X132.777 Y137.567 E67.66331
G1 X132.081 Y137.673 E67.7478
G1 X131.5 Y137.7 E67.81759
G1 X111.5 Y137.7 E70.21759
G1 X110.797 Y137.66 E70.30209
G1 X110.103 Y137.541 E70.38658
G1 X109.428 Y137.343 E70.471
G1 X108.779 Y137.071 E70.55544
G1 X108.165 Y136.726 E70.63995
G1 X107.594 Y136.315 E70.72438
G1 X107.073 Y135.841 E70.8089
G1 X106.609 Y135.311 E70.89343
G1 X106.209 Y134.732 E70.97788
G1 X105.877 Y134.111 E71.06238
G1 X105.617 Y133.457 E71.14683
G1 X105.433 Y132.777 E71.23137
G1 X105.327 Y132.081 E71.31585
G1 X105.3 Y131.5 E71.38565
G1 X105.3 Y111.5 E73.78565
G1 X105.34 Y110.797 E73.87014
G1 X105.459 Y110.103 E73.95464
G1 X105.657 Y109.428 E74.03905
G1 X105.929 Y108.779 E74.12349
G1 X106.274 Y108.165 E74.20801
G1 X106.685 Y107.594 E74.29243
G1 X107.159 Y107.073 E74.37696
G0 F3600 X107.553 Y107.251
G1 F1800 X108.078 Y106.817 E74.4587
G1 X108.65 Y106.448 E74.54038
G1 X109.262 Y106.149 E74.62211
G1 X109.904 Y105.924 E74.70375
G1 X110.569 Y105.775 E74.78553
G1 X111.5 Y105.7 E74.89761
G1 X131.5 Y105.7 E77.29761
G1 X132.18 Y105.74 E77.37935
G1 X132.85 Y105.859 E77.46101
G1 X133.502 Y106.056 E77.54274
G1 X134.126 Y106.328 E77.62443
G1 X134.714 Y106.672 E77.70618
G1 X135.258 Y107.082 E77.78792
G1 X135.749 Y107.553 E77.86957
G1 X136.183 Y108.078 E77.9513
G1 X136.552 Y108.65 E78.03299
G1 X136.851 Y109.262 E78.11472
G1 X137.076 Y109.904 E78.19636
G1 X137.225 Y110.569 E78.27814
G1 X137.3 Y111.5 E78.39022
G1 X137.3 Y131.5 E80.79022
G1 X137.26 Y132.18 E80.87196
G1 X137.141 Y132.85 E80.95362
G1 X136.944 Y133.502 E81.03535
G1 X136.672 Y134.126 E81.11704
G1 X136.328 Y134.714 E81.19878
G1 X135.918 Y135.258 E81.28053
G1 X135.447 Y135.749 E81.36218
G1 X134.922 Y136.183 E81.44391
G1 X134.35 Y136.552 E81.5256
G1 X133.738 Y136.851 E81.60733
G1 X133.096 Y137.076 E81.68897
G1 X132.431 Y137.225 E81.77075
G1 X131.5 Y137.3 E81.88283
G1 X111.5 Y137.3 E84.28283
G1 X110.82 Y137.26 E84.36457
G1 X110.15 Y137.141 E84.44623
G1 X109.498 Y136.944 E84.52796
G1 X108.874 Y136.672 E84.60965
G1 X108.286 Y136.328 E84.69139
G1 X107.742 Y135.918 E84.77314
G1 X107.251 Y135.447 E84.85478
G1 X106.817 Y134.922 E84.93652
G1 X106.448 Y134.35 E85.01821
G1 X106.149 Y133.738 E85.09994
G1 X105.924 Y133.096 E85.18158
G1 X105.775 Y132.431 E85.26336
G1 X105.7 Y131.5 E85.37544
G1 X105.7 Y111.5 E87.77544
G1 X105.74 Y110.82 E87.85718
G1 X105.859 Y110.15 E87.93884
G1 X106.056 Y109.498 E88.02057
G1 X106.328 Y108.874 E88.10226
G1 X106.672 Y108.286 E88.184
G1 X107.082 Y107.742 E88.26575
G1 X107.553 Y107.251 E88.34739
G0 F3600 X107.945 Y107.435
G1 F1800 X108.465 Y107.034 E88.42619
G1 X109.029 Y106.698 E88.50497
G1 X109.631 Y106.434 E88.58385
G1 X110.26 Y106.244 E88.6627
G1 X110.907 Y106.133 E88.74148
G1 X111.5 Y106.1 E88.81275
G1 X131.5 Y106.1 E91.21275
G1 X132.156 Y106.14 E91.29161
G1 X132.802 Y106.259 E91.37044
G1 X133.429 Y106.456 E91.4493
G1 X134.027 Y106.728 E91.52814
G1 X134.588 Y107.07 E91.60698
G1 X135.103 Y107.478 E91.68583
G1 X135.565 Y107.945 E91.76465
G1 X135.966 Y108.465 E91.84345
G1 X136.302 Y109.029 E91.92223
G1 X136.566 Y109.631 E92.00112
G1 X136.756 Y110.26 E92.07996
G1 X136.867 Y110.907 E92.15874
G1 X136.9 Y111.5 E92.23001
G1 X136.9 Y131.5 E94.63001
G1 X136.86 Y132.156 E94.70887
G1 X136.741 Y132.802 E94.7877
G1 X136.544 Y133.429 E94.86656
G1 X136.272 Y134.027 E94.9454
G1 X135.93 Y134.588 E95.02424
G1 X135.522 Y135.103 E95.10309
G1 X135.055 Y135.565 E95.18192
G1 X134.535 Y135.966 E95.26071
G1 X133.971 Y136.302 E95.33949
G1 X133.369 Y136.566 E95.41838
G1 X132.74 Y136.756 E95.49722
G1 X132.093 Y136.867 E95.576
G1 X131.5 Y136.9 E95.64727
G1 X111.5 Y136.9 E98.04727
G1 X110.844 Y136.86 E98.12613
G1 X110.198 Y136.741 E98.20496
G1 X109.571 Y136.544 E98.28383
G1 X108.973 Y136.272 E98.36266
G1 X108.412 Y135.93 E98.4415
G1 X107.897 Y135.522 E98.52035
G1 X107.435 Y135.055 E98.59918
G1 X107.034 Y134.535 E98.67798
G1 X106.698 Y133.971 E98.75676
G1 X106.434 Y133.369 E98.83564
G1 X106.244 Y132.74 E98.91448
G1 X106.133 Y132.093 E98.99326
G1 X106.1 Y131.5 E99.06453
G1 X106.1 Y111.5 E101.46453
G1 X106.14 Y110.844 E101.5434
G1 X106.259 Y110.198 E101.62222
G1 X106.456 Y109.571 E101.70109
G1 X106.728 Y108.973 E101.77992
G1 X107.07 Y108.412 E101.85876
G1 X107.478 Y107.897 E101.93761
G1 X107.945 Y107.435 E102.01644
G0 F3600 X107.873 Y108.059
G1 F1800 X108.336 Y107.629 E102.09226
G1 X108.85 Y107.26 E102.16819
G1 X109.406 Y106.96 E102.244
G1 X109.995 Y106.732 E102.31979
G1 X110.609 Y106.58 E102.3957
G1 X111.5 Y106.5 E102.50305
G1 X131.5 Y106.5 E104.90305
G1 X132.131 Y106.54 E104.97892
G1 X132.752 Y106.659 E105.0548
G1 X133.352 Y106.856 E105.13058
G1 X133.924 Y107.127 E105.20653
G1 X134.456 Y107.467 E105.2823
G1 X134.941 Y107.873 E105.3582
G1 X135.371 Y108.336 E105.43402
G1 X135.74 Y108.85 E105.50995
G1 X136.04 Y109.406 E105.58576
G1 X136.268 Y109.995 E105.66155
G1 X136.42 Y110.609 E105.73746
G1 X136.5 Y111.5 E105.84481
G1 X136.5 Y131.5 E108.24481
G1 X136.46 Y132.131 E108.32068
G1 X136.341 Y132.752 E108.39656
G1 X136.144 Y133.352 E108.47234
G1 X135.873 Y133.924 E108.54829
G1 X135.533 Y134.456 E108.62406
G1 X135.127 Y134.941 E108.69996
G1 X134.664 Y135.371 E108.77578
G1 X134.15 Y135.74 E108.85171
G1 X133.594 Y136.04 E108.92752
G1 X133.005 Y136.268 E109.00331
G1 X132.391 Y136.42 E109.07922
G1 X131.5 Y136.5 E109.18657
G1 X111.5 Y136.5 E111.58657
G1 X110.869 Y136.46 E111.66244
G1 X110.248 Y136.341 E111.73831
G1 X109.648 Y136.144 E111.8141
G1 X109.076 Y135.873 E111.89005
G1 X108.544 Y135.533 E111.96581
G1 X108.059 Y135.127 E112.04171
G1 X107.629 Y134.664 E112.11754
G1 X107.26 Y134.15 E112.19347
G1 X106.96 Y133.594 E112.26928
G1 X106.732 Y133.005 E112.34507
G1 X106.58 Y132.391 E112.42098
G1 X106.5 Y131.5 E112.52833
G1 X106.5 Y111.5 E114.92833
G1 X106.54 Y110.869 E115.0042
G1 X106.659 Y110.248 E115.08007
G1 X106.856 Y109.648 E115.15586
G1 X107.127 Y109.076 E115.23181
G1 X107.467 Y108.544 E115.30757
G1 X107.873 Y108.059 E115.38347
G0 F3600 X108.267 Y108.228
G1 F1800 X108.725 Y107.831 E115.45621
G1 X109.232 Y107.498 E115.529
G1 X109.778 Y107.234 E115.60177
G1 X110.354 Y107.045 E115.67452
G1 X110.95 Y106.933 E115.74729
G1 X111.5 Y106.9 E115.81341
G1 X131.5 Y106.9 E118.21341
G1 X132.105 Y106.94 E118.28617
G1 X132.699 Y107.059 E118.35887
G1 X133.273 Y107.255 E118.43165
G1 X133.816 Y107.526 E118.50447
G1 X134.319 Y107.865 E118.57726
G1 X134.772 Y108.267 E118.64994
G1 X135.169 Y108.725 E118.72267
G1 X135.502 Y109.232 E118.79546
G1 X135.766 Y109.778 E118.86824
G1 X135.955 Y110.354 E118.94099
G1 X136.067 Y110.95 E119.01376
G1 X136.1 Y111.5 E119.07988
G1 X136.1 Y131.5 E121.47988
G1 X136.06 Y132.105 E121.55264
G1 X135.941 Y132.699 E121.62533
G1 X135.745 Y133.273 E121.69812
G1 X135.474 Y133.816 E121.77094
